X:1
T:Title
%%score { 1 | 2 }
L:1/8
Q:1/4=100
M:4/4
K:G
V:1 treble nm="Grand Piano"
V:2 bass 
V:1
 [Bd]4 [ce]2 [Bd]2 | [GB]2 [Bd]4 z2 | [Ad]4 [FA]2 [Ac]2 | [GB]6 z2 | [Bd]4 [ce]2 [Bd]2 | %5
w: D.~O.~Teasley * *|||||
 [GB]2 [Bd]4 z2 | [Be]4 [Ad]2 [A^c]2 | [Ad]6 z2 | [Ad]4 [FA]2 [Ac]2 | [Ac]2 [GB]4 z2 | %10
w: |||||
 [Ad]4 [FA]2 [Ac]2 | [GB]6 z2 | [GB]4 [GB]2 [Bd]2 | [d=f]2 [ce]4 z2 | %14
w: ||||
 [Bd]4 [Bd]2 [Ac]2[Q:1/4=99][Q:1/4=97][Q:1/4=96][Q:1/4=94][Q:1/4=93][Q:1/4=91][Q:1/4=90][Q:1/4=88][Q:1/4=87][Q:1/4=85][Q:1/4=84][Q:1/4=82][Q:1/4=81][Q:1/4=79][Q:1/4=78][Q:1/4=76] | %15
w: |
 [GB]6 z2 |] %16
w: |
V:2
 [G,,G,]4 [G,,G,]2 [G,,G,]2 | [G,,D,]2 [G,,G,]4 z2 | [D,F,]4 D,2 D,2 | [G,,D,]6 z2 | %4
 [G,,G,]4 [G,,G,]2 [G,,G,]2 | [G,,D,]2 [G,,G,]4 z2 | [E,G,]4 [A,,F,]2 [A,,E,]2 | [D,F,]6 z2 | %8
 [D,F,]4 D,2 D,2 | [G,,D,]2 [G,,D,]4 z2 | [D,F,]4 D,2 D,2 | [G,,D,]6 z2 | %12
 [G,,D,]4 [G,,D,]2 [G,,G,]2 | [C,G,]2 [C,G,]4 z2 | [D,G,]4 [D,F,]2 D,2 | [G,,D,]6 z2 |] %16

